pages/Absolute/img/icon_stavka.svg

<svg width="56" height="56" viewBox="0 0 56 56" fill="none" xmlns="http://www.w3.org/2000/svg">
<path d="M0.431885 53.4845L53.4845 0.431824L55.5683 2.51561L2.51567 55.5683L0.431885 53.4845Z" fill="#387553"/>
<path d="M8.84211 17.6842C13.7185 17.6842 17.6842 13.7185 17.6842 8.84211C17.6842 3.96568 13.7185 0 8.84211 0C3.96568 0 0 3.96568 0 8.84211C0 13.7185 3.96568 17.6842 8.84211 17.6842ZM8.84211 2.94737C12.0931 2.94737 14.7368 5.59116 14.7368 8.84211C14.7368 12.0931 12.0931 14.7368 8.84211 14.7368C5.59116 14.7368 2.94737 12.0931 2.94737 8.84211C2.94737 5.59116 5.59116 2.94737 8.84211 2.94737Z" fill="#387553"/>
<path d="M47.1578 38.3158C42.2814 38.3158 38.3157 42.2815 38.3157 47.1579C38.3157 52.0343 42.2814 56 47.1578 56C52.0342 56 55.9999 52.0343 55.9999 47.1579C55.9999 42.2815 52.0342 38.3158 47.1578 38.3158ZM47.1578 53.0526C43.9068 53.0526 41.263 50.4089 41.263 47.1579C41.263 43.907 43.9068 41.2632 47.1578 41.2632C50.4087 41.2632 53.0525 43.907 53.0525 47.1579C53.0525 50.4089 50.4087 53.0526 47.1578 53.0526Z" fill="#387553"/>
</svg>

<svg width="56" height="56" fill="none" xmlns="http://www.w3.org/2000/svg">
  <path d="M.432 53.484L53.484.432l2.084 2.084L2.516 55.568.432 53.484zM8.842 17.684c4.877 0 8.842-3.966 8.842-8.842S13.718 0 8.842 0 0 3.966 0 8.842c0 4.877 3.966 8.842 8.842 8.842zm0-14.737a5.9 5.9 0 015.895 5.895 5.9 5.9 0 01-5.895 5.895 5.9 5.9 0 01-5.895-5.895 5.9 5.9 0 015.895-5.895zM47.158 38.316c-4.877 0-8.842 3.965-8.842 8.842 0 4.876 3.965 8.842 8.842 8.842C52.034 56 56 52.034 56 47.158c0-4.877-3.966-8.842-8.842-8.842zm0 14.737a5.9 5.9 0 01-5.895-5.895 5.9 5.9 0 015.895-5.895 5.9 5.9 0 015.895 5.895 5.9 5.9 0 01-5.895 5.895z" fill="#387553"/>
</svg>
